X:1854
T:Alle fugler sm\aa de er
T:Alle V\"ogel sind schon da / Alla f\aaglar kommit re'n
C:anon., arr. Frank Nordberg
O:Norway / Germany
Z:Transcribed by Frank Nordberg - http://www.musicaviva.com
F:http://abc.musicaviva.com/tunes/norway/alle-vogel/alle-vogel-a4.abc
V:3 alto
V:4 bass
M:4/4
L:1/4
Q:1/4=108
K:C
V:1
C>E Gc|A/A/ c/A/ G/c/c|d>B cG|F2 E2:|
w:Al-le fug-ler, al-le fug-ler sm\aa de er kom-met nu til-ba-ke!
w:Gj\ok og si-sik, gj\ok og si-sik, trost og st\aer syn-ger al-le da-ge!
V:2
C>E Gc|Ac/A/ G2|F>G EC|D2 C2:|
w:Al-le fug-ler sm\aa de_ er kom-met nu til-ba-ke!
w:Gj\ok og si-sik, trost og_ st\aer syn-ger al-le da-ge!
V:3
C>E CC|CC EC|G,>G, G,G,|A,B, C2:|
w:Al-le fug-ler sm\aa de er_ kom-met nu til-ba--ke!
w:Gj\ok og si-sik, trost og st\aer_ syn-ger al-le da--ge!
V:4
C,2 E,2|F,F, C,/E,/E,|B,,>D, C,E,|D,G,, C,2:|
w:Al-le fug-ler sm\aa de er kom-met nu til-ba--ke!
w:Gj\ok og si-sik, trost og st\aer syn-ger al-le da--ge!
%
V:1
GG dB|ce/c/ G2|GG dB|ce/c/ G2|
w:Ler-ka jub-ler h\oyt i_ sky, rin-ger v\aa-ren inn p\aa_ ny.
V:2
GG FF|EG/E/ D2|GG FF|EG/E/ D2|
w:Ler-ka jub-ler h\oyt i_ sky, rin-ger v\aa-ren inn p\aa_ ny.
V:3
CC B,B,|G,C B,2|CC B,B,|G,C B,2|
w:Ler-ka jub-ler h\oyt i sky, rin-ger v\aa-ren inn p\aa ny.
V:4
E,E, D,D,|C,E, G,F,|E,E, D,D,|C,E, G,F,|
w:Ler-ka jub-ler h\oyt i sky,_ rin-ger v\aa-ren inn p\aa ny._
%
V:1
C>E Gc|A/A/ c/A/ G/c/c|d>B cG|F2 E2|]
w:Frost og sne de, frost og sne de m\aat-te fly. Her er sol og gle-de.
V:2
C>E Gc|Ac/A/ G2|F>G EC|D2 C2|]
w:Frost og sne de m\aat-te_ fly. Her er sol og gle-de.
V:3
G,>C EC|CC C2|B,>G, G,G,|A,B, G,2|]
w:Frost og sne de m\aat-te fly. Her er sol og gle--de.
V:4
E,>C, C,E,|F,F, E,2|D,>D, C,E,|D,G,, C,2|]
w:Frost og sne de m\aat-te fly. Her er sol og gle--de.
W:
W:Alle fugler sm\aa de er kommet nu tilbake!
W:Gj\ok og sisik, trost og st\aer synger alle dage!
W:Lerka jubler h\oyt i sky, ringer v\aaren inn p\aa ny.
W:Frost og sne de m\aatte fly. Her er sol og glede.
W:
W:Blomster hvite, gule bl\aa, titter opp av uren,
W:nikker nu s\aa blidt de sm\aa etter vinterluren.
W:Skog og mark i gr\onne skrud kler seg n\aa p\aa Herrens bud.
W:Knopper sm\aa, de springer ut. Her er sol og glede.
W:
W:Lille s\oster! Lille bror! Kom, s\aa skal vi danse!
W:Plukke blomster s\aa til mor, mange, mange kranse!
W:Synge, tralle dagen lang! Kr\aakestup og bukkesprang!
W:Takk, o Gud som enn en gang gav oss sol og glede.
W:
W:
W:  From Musica Viva - http://www.musicaviva.com
W:  the Internet center for free sheet music downloads.
